Yaru++/actions/16/node.svg

<svg viewBox="0 0 24 24" xmlns="http://www.w3.org/2000/svg">
  <path d="m7 4-.09375.09375-2.90625 2.90625v.90625 11.40625.6875h.6875 11.4375.84375l.03125-.03125 2.90625-2.90625.0625-.0625.03125-.03125v-.53125-11.75-.6875h-.6875-11.78125zm1 1h10.3125l-1.9375 1.9375-.0625.0625h-8.3125zm-1 .375v1.625h-1.625zm12 .3125v10.3125h-2v-8.3125l.0625-.0625zm-14 2.3125h2v8.28125l-.34375.375-1.65625 1.65625zm3 0h8v8h-8zm-.28125 9h8.28125v2h-10.3125l1.65625-1.65625zm9.28125 0h1.59375l-1.59375 1.59375z" fill="#808080"/>
</svg>

<svg xmlns="http://www.w3.org/2000/svg" viewBox="0 0 24 24">
 <defs>
  <style id="current-color-scheme" type="text/css">
   .ColorScheme-Text { color:#808080; }
  </style>
 </defs>
 <path style="fill:currentColor" class="ColorScheme-Text" d="M 7 4 L 6.90625 4.09375 L 4 7 L 4 7.90625 L 4 19.3125 L 4 20 L 4.6875 20 L 16.125 20 L 16.96875 20 L 17 19.96875 L 19.90625 17.0625 L 19.96875 17 L 20 16.96875 L 20 16.4375 L 20 4.6875 L 20 4 L 19.3125 4 L 7.53125 4 L 7 4 z M 8 5 L 18.3125 5 L 16.375 6.9375 L 16.3125 7 L 8 7 L 8 5 z M 7 5.375 L 7 7 L 5.375 7 L 7 5.375 z M 19 5.6875 L 19 16 L 17 16 L 17 7.6875 L 17.0625 7.625 L 19 5.6875 z M 5 8 L 7 8 L 7 16.28125 L 6.65625 16.65625 L 5 18.3125 L 5 8 z M 8 8 L 16 8 L 16 16 L 8 16 L 8 8 z M 7.71875 17 L 16 17 L 16 19 L 5.6875 19 L 7.34375 17.34375 L 7.71875 17 z M 17 17 L 18.59375 17 L 17 18.59375 L 17 17 z"/>
</svg>
